X: 21352
Q: "Slow, with Expression"
M: C|
L: 1/16
K: B
|:\
fd3 {d}c3B G3A B4 | fd3 {d}c2B2 {ef}g4 f4 |\
{f}e2d2 {d}c2B2 G3A B4  | F4 G3A B8 :|\
{f}e2d2{d}c2B2 G3A B4 | F4 G3A B8 |]


